X: 64
T:Le Canal En Octobre
M:4/4
L:1/8
C:Frederic Paris
R:Schottische
N:http://www.lesession.co.uk
Z:Steve Mansfield 1998-2001
K:G
DGA | B3 c cBAG | B3 c cBAG | EFGB A3 G | FGEF D2 GA | 
B3 c cBAG | B3 c cBAG | EFGB A3 G | (G4 G) :: ABc |  
d3 c cBAG | d3 c cBAG | EFGB A3 G | FGEF D2 Bc | 
d3 c cBAG | d3 c cBAG | EFGB A3 G | (G4 G) :|
<end>
<start>
